svg/u2697.svg

<svg viewBox="0 0 128 128" xmlns="http://www.w3.org/2000/svg">
  <g>
    <path d="M43.34,65.46l2.67,50c0.05,1.17,1.01,2.09,2.18,2.09c1.17,0,2.13-0.92,2.18-2.09l2.67-50H43.34z" fill="#2F7889"/>
    <path d="M48.09,95.01c-2.14,0.73-2.74,3.15-2.9,5.1c0,0,0.59,10.01,0.82,15.36 c0.05,1.17,1.01,2.09,2.18,2.09c1.17,0,2.13-0.92,2.18-2.09c0.29-5.49,0.84-17.79,0.84-17.79S50.24,94.28,48.09,95.01z" fill="#84B0C1"/>
    <path d="M121.64,31.35c0,0-15.54-7.26-31.3-15.34C78.3,9.84,63.69,3.6,48.48,3.6 C24.88,3.6,5.74,22.74,5.74,46.35s19.14,42.74,42.74,42.74s42.74-19.14,42.74-42.74c0-0.86-0.03-1.71-0.08-2.56l25.04,5.87 c2.68,0.58,5.89-2.99,7.16-7.59S124.04,32.36,121.64,31.35z" opacity="0.75" fill="#81D4FA"/>
    <path d="M11.13,48.89c0,18.87,18.29,35.1,37.36,35.1s37.36-16.84,37.36-35.1H11.13z" fill="#AB47BC"/>
    <path d="M73.57,74.1l-2.23-5.73L23.3,70.48l-0.57,3.08c2.77,2.6,5.94,4.78,9.4,6.45 c-1.08-1.61-2.19-4.11,1.53-3.55c0,0,6.5,1.05,14.85,1.05s16.24-1.2,16.24-1.2c3.33,0.02,0.89,3.22,0.89,3.22 C68.51,78.07,71.18,76.24,73.57,74.1z" fill="#992FAF"/>
    <ellipse cx="48.49" cy="48.64" rx="37.36" ry="4.96" fill="#EA80FC"/>
    <path d="M19.6,72.31L4.16,121.42c-0.43,1.09,0.07,2.32,1.14,2.79c1.07,0.47,2.32,0.02,2.83-1.03l20.23-50.87 H19.6z" fill="#84B0C1"/>
    <path d="M77.12,72.31h-8.74l20.22,50.87c0.51,1.05,1.76,1.5,2.83,1.03c1.07-0.47,1.57-1.7,1.14-2.79 L77.12,72.31z" fill="#84B0C1"/>
    <path d="M48.2,75.3c-27.33,0-37.39-6.11-37.85-6.37c-1.91-1.09-3.76-3.09-3.78-5.28 c-0.01-2.67,1.88-3.3,1.88-3.3c4.12,0.98,15.05,7,39.75,7c24.98,0,40.62-7.07,40.72-7.13c0,0,1.66,1.25,1.65,3.69 c-0.01,2.18-1.36,4.41-3.82,5.51C86.25,69.65,75.47,75.3,48.2,75.3z" fill="#84B0C1"/>
    <path d="M77.19,72.52c6.39-1.46,9.31-2.98,9.56-3.09c1.58-0.71,2.69-1.89,3.3-3.21 c0.67-1.58,0.52-2.3,0.52-2.3c-0.11,0.05-17.39,7.98-42.37,7.98c-24.7,0-37.47-6.76-41.59-7.74c0,0-0.04,0.66,0.61,1.75 c0.71,1.26,1.9,2.33,3.13,3.03c0.23,0.13,2.98,1.79,9.24,3.38l-1.32,4.2c0.03,0.01,0.05,0.01,0.07,0.02 c0.43-1.3,2.26-2.04,4.27-1.66c2.11,0.4,3.59,1.88,3.35,3.32c0.02,0,0.03,0.01,0.05,0.01l1.7-4.27c0,0,7.96,1.38,20.48,1.38 s20.85-1.31,20.85-1.31l1.71,4.29c0.02,0,0.05-0.01,0.08-0.01c0-0.01-0.01-0.01-0.01-0.02c-0.28-1.45,1.22-2.95,3.35-3.36 c2.11-0.4,4.03,0.43,4.34,1.86c0,0,0.01,0,0.01,0L77.19,72.52z" fill="#2F7889"/>
    <g opacity="0.6">
      <path d="M80.91,15.35c5.63,2.18,35.22,16.21,37.67,17.47c3.03,1.56,1.87,7-2.04,5.8 c-5.66-1.75-28.04-14.89-32.48-17.4C72.82,14.86,75.29,13.17,80.91,15.35z" fill="#FFFFFF"/>
    </g>
    <g opacity="0.6">
      <path d="M38.1,30.98c-2.3,3.35-4.75,6.34-6.37,10.14c-1.62,3.8-2.57,7.84-3.93,11.73 c-0.61,1.74-1.53,3.67-3.32,4.13c-1.48,0.38-3.07-0.46-3.97-1.7s-1.24-2.79-1.46-4.3c-1.03-7.24,0.03-15.29,2.75-21.94 c1.9-4.63,5.46-9.14,10.67-10.64c6.75-1.94,10.88,5.62,6.33,11.45C38.52,30.21,38.35,30.62,38.1,30.98z" fill="#FFFFFF"/>
    </g>
    <path d="M19.16,63.79c-3.96-1.17-6.31-2.03-6.9-0.83c-0.69,1.4,1.47,3.23,13.6,5.52s19.89,1.62,23.17,0.2 c3.28-1.42-5.25-1.42-8.26-1.61C31.24,66.48,23.11,64.96,19.16,63.79z" fill="#B9E4EA"/>
  </g>
</svg>

<svg viewBox="0 0 128 128" xmlns="http://www.w3.org/2000/svg">
  <defs/>
  <path d="M43.34,65.46 L46.01,115.46 C46.06,116.63 47.02,117.55 48.19,117.55 C49.36,117.55 50.32,116.63 50.37,115.46 L53.04,65.46 L43.34,65.46 Z" fill="#2F7889"/>
  <path d="M48.09,95.01 C45.95,95.74 45.35,98.16 45.19,100.11 C45.19,100.11 45.78,110.12 46.01,115.47 C46.06,116.64 47.02,117.56 48.19,117.56 C49.36,117.56 50.32,116.64 50.37,115.47 C50.66,109.98 51.21,97.68 51.21,97.68 C51.21,97.68 50.24,94.28 48.09,95.01 Z" fill="#84B0C1"/>
  <path d="M121.64,31.35 C121.64,31.35 106.1,24.09 90.34,16.01 C78.3,9.84 63.69,3.6 48.48,3.6 C24.88,3.6 5.74,22.74 5.74,46.35 C5.74,69.96 24.88,89.09 48.48,89.09 C72.08,89.09 91.22,69.95 91.22,46.35 C91.22,45.49 91.19,44.64 91.14,43.79 L116.18,49.66 C118.86,50.24 122.07,46.67 123.34,42.07 C124.61,37.47 124.04,32.36 121.64,31.35 Z" fill="#81D4FA" opacity="0.75"/>
  <path d="M11.13,48.89 C11.13,67.76 29.42,83.99 48.49,83.99 C67.56,83.99 85.85,67.15 85.85,48.89 L11.13,48.89 Z" fill="#AB47BC"/>
  <path d="M73.57,74.1 L71.34,68.37 L23.3,70.48 L22.73,73.56 C25.5,76.16 28.67,78.34 32.13,80.01 C31.05,78.4 29.94,75.9 33.66,76.46 C33.66,76.46 40.16,77.51 48.51,77.51 C56.86,77.51 64.75,76.31 64.75,76.31 C68.08,76.33 65.64,79.53 65.64,79.53 C68.51,78.07 71.18,76.24 73.57,74.1 Z" fill="#992FAF"/>
  <path d="M85.85,48.64 A37.36 4.96 0 1 1 11.13,48.64 A37.36 4.96 0 1 1 85.85,48.64 Z" fill="#EA80FC"/>
  <path d="M19.6,72.31 L4.16,121.42 C3.73,122.51 4.23,123.74 5.3,124.21 C6.37,124.68 7.62,124.23 8.13,123.18 L28.36,72.31 L19.6,72.31 Z" fill="#84B0C1"/>
  <path d="M77.12,72.31 L68.38,72.31 L88.6,123.18 C89.11,124.23 90.36,124.68 91.43,124.21 C92.5,123.74 93,122.51 92.57,121.42 L77.12,72.31 Z" fill="#84B0C1"/>
  <path d="M48.2,75.3 C20.87,75.3 10.81,69.19 10.35,68.93 C8.44,67.84 6.59,65.84 6.57,63.65 C6.56,60.98 8.45,60.35 8.45,60.35 C12.57,61.33 23.5,67.35 48.2,67.35 C73.18,67.35 88.82,60.28 88.92,60.22 C88.92,60.22 90.58,61.47 90.57,63.91 C90.56,66.09 89.21,68.32 86.75,69.42 C86.25,69.65 75.47,75.3 48.2,75.3 Z" fill="#84B0C1"/>
  <path d="M77.19,72.52 C83.58,71.06 86.5,69.54 86.75,69.43 C88.33,68.72 89.44,67.54 90.05,66.22 C90.72,64.64 90.57,63.92 90.57,63.92 C90.46,63.97 73.18,71.9 48.2,71.9 C23.5,71.9 10.73,65.14 6.61,64.16 C6.61,64.16 6.57,64.82 7.22,65.91 C7.93,67.17 9.12,68.24 10.35,68.94 C10.58,69.07 13.33,70.73 19.59,72.32 L18.27,76.52 C18.3,76.53 18.32,76.53 18.34,76.54 C18.77,75.24 20.6,74.5 22.61,74.88 C24.72,75.28 26.2,76.76 25.96,78.2 C25.98,78.2 25.99,78.21 26.01,78.21 L27.71,73.94 C27.71,73.94 35.67,75.32 48.19,75.32 C60.71,75.32 69.04,74.01 69.04,74.01 L70.75,78.3 C70.77,78.3 70.8,78.29 70.83,78.29 C70.83,78.28 70.82,78.28 70.82,78.27 C70.54,76.82 72.04,75.32 74.17,74.91 C76.28,74.51 78.2,75.34 78.51,76.77 C78.51,76.77 78.52,76.77 78.52,76.77 L77.19,72.52 Z" fill="#2F7889"/>
  <path d="M80.91,15.35 C86.54,17.53 116.13,31.56 118.58,32.82 C121.61,34.38 120.45,39.82 116.54,38.62 C110.88,36.87 88.5,23.73 84.06,21.22 C72.82,14.86 75.29,13.17 80.91,15.35 Z" fill="#FFFFFF" opacity="0.6"/>
  <path d="M38.1,30.98 C35.8,34.33 33.35,37.32 31.73,41.12 C30.11,44.92 29.16,48.96 27.8,52.85 C27.19,54.59 26.27,56.52 24.48,56.98 C23,57.36 21.41,56.52 20.51,55.28 C19.61,54.04 19.27,52.49 19.05,50.98 C18.02,43.74 19.08,35.69 21.8,29.04 C23.7,24.41 27.26,19.9 32.47,18.4 C39.22,16.46 43.35,24.02 38.8,29.85 C38.52,30.21 38.35,30.62 38.1,30.98 Z" fill="#FFFFFF" opacity="0.6"/>
  <path d="M19.16,63.79 C15.2,62.62 12.85,61.76 12.26,62.96 C11.57,64.36 13.73,66.19 25.86,68.48 C37.99,70.77 45.75,70.1 49.03,68.68 C52.31,67.26 43.78,67.26 40.77,67.07 C31.24,66.48 23.11,64.96 19.16,63.79 Z" fill="#B9E4EA"/>
</svg>
